lightbulb-fluorescent-tube-outline.svg

<svg fill="currentColor" viewBox="0 0 24 24"><path d="m7.05 2.81-.55.53-1.39-1.42-1.24 1.24 1.41 1.42-.7.7-1.42-1.41-1.24 1.24L3.34 6.5l-.53.55 1.41 1.41 11.32 11.32 1.41 1.41.55-.53 1.39 1.42 1.24-1.24-1.41-1.41.71-.71 1.41 1.41 1.24-1.24-1.42-1.39.53-.55-1.41-1.41L8.46 4.22M7.05 5.64l11.31 11.31-1.41 1.41L5.64 7.05Z"/></svg>

<svg  viewBox="0 0 24 24" fill="currentColor"><path  d="M7.05 2.81L6.5 3.34L5.11 1.92L3.87 3.16L5.28 4.58L4.58 5.28L3.16 3.87L1.92 5.11L3.34 6.5L2.81 7.05L4.22 8.46L15.54 19.78L16.95 21.19L17.5 20.66L18.89 22.08L20.13 20.84L18.72 19.43L19.43 18.72L20.84 20.13L22.08 18.89L20.66 17.5L21.19 16.95L19.78 15.54L8.46 4.22M7.05 5.64L18.36 16.95L16.95 18.36L5.64 7.05Z"/></svg>
